X:1
L:1/8
Q:1/8=120
M:6/8
K:Emin
""^andante malancolico"" G>GG G3 | GFF F3 | E2 B B2 A | G2 E F3 | G>AG G3 | G>FF F3 | E2 B B2 A | 
 G2 E E2 || f | g2 e e>^de | g2 e e>^de | g2 B BAG | ^GAA A=GF | G>GG G3 | GFF F3 | E2 B B2 A | 
 G2 E F3 | G>AG G3 | GFF F-F/A/G/F/ | E2 B B2 A | G2 E E3 |]
